!!!OTL: NICHTS KANN AUF ERDEN VERGLICHEN WERDEN  DES SCHAEFERS LUST
!!!ARE: Europa, Mitteleuropa, Deutschland
!!!SCT: Z0215
!!!YEM: Copyright 1995, estate of Helmut Schaffrath.
**kern
*ICvox
*Ivox
*M3/4
*k[b-e-]
*B-:
{8f
8b-
8dd
=1
8.cc
16dd
8b-
8b-
8dd
8ff
=2
8.ee-
16ff
8dd
8ff
16gg
16ff
16ee-
16dd
=3
4cc
8r}
{8ff
8gg
8ff
=4
8.ee-
16dd
8cc
8ee-
8ff
8ee-
=5
8.dd
16cc
8b-}
{8b-
8ee-
8gg
=6
8ff
8bb-
8ff
8dd
8ee-
8gg
=7
8ff
8bb-
8ff
16ff
16ee-
8dd
8cc
=8
4b-
8r}
{8ff
8gg
8ff
=9
8.ee-
16dd
8cc
8ee-
8ff
8ee-
=10
8.dd
16cc
8b-}
{8b-
8ee-
8gg
=11
8ff
8bb-
8ff
8dd
8ee-
8gg
=12
8ff
8bb-
8ff
16ff
16ee-
8dd
8cc
=13
4b-
8r}
==
!!!AGN: Staende -, Schaefer - Lied
!!!ONB: ESAC (Essen Associative Code) Database: ZUCCAL
!!!AMT: simple triple
!!!AIN: vox
!!!EED: Helmut Schaffrath
!!!EEV: 1.0
*-
